X: 367
T: Wangqiufeng xiaochang
L: 1/8
M: 2/4
K: A
B B B F [I:setbarnb 1]| 
B4 | 
e> c B A | 
E4 | 
B B F E | 
B B F E | 
B B B F | 
A2F E | 
F c/ c/ B F | 
E4 |]

@@@ Tune index: 9241
